Newaita-dark/apps/32/devhelp.svg

<svg height="32" viewBox="0 0 32 32" width="32" xmlns="http://www.w3.org/2000/svg" xmlns:xlink="http://www.w3.org/1999/xlink"><linearGradient id="a" gradientUnits="userSpaceOnUse" x1="15.87652" x2="15.87652" y1="28.033936" y2="29.35698000003"><stop offset="0" stop-opacity=".27451"/><stop offset="1" stop-opacity="0"/></linearGradient><linearGradient id="b"><stop offset="0" stop-opacity=".313726"/><stop offset=".222222" stop-opacity=".27451"/><stop offset="1" stop-opacity="0"/></linearGradient><radialGradient id="c" cx="450.908936" cy="189.579361" gradientTransform="matrix(.00000017 -.0781325 -.140638 -.0000001 50.146086 63.595333)" gradientUnits="userSpaceOnUse" r="21.166656" xlink:href="#b"/><radialGradient id="d" cx="450.908936" cy="189.579361" gradientTransform="matrix(-.00000017 .0781325 .140638 .0000001 -18.393049 -7.52748)" gradientUnits="userSpaceOnUse" r="21.166656" xlink:href="#b"/><radialGradient id="e" cx="450.908936" cy="189.579361" gradientTransform="matrix(-.00000017 -.0781325 .140638 -.0000001 -18.393049 63.595333)" gradientUnits="userSpaceOnUse" r="21.166656" xlink:href="#b"/><radialGradient id="f" cx="450.908936" cy="189.579361" gradientTransform="matrix(.00000017 .0781325 -.140638 .0000001 50.146084 -7.527479)" gradientUnits="userSpaceOnUse" r="21.166656" xlink:href="#b"/><linearGradient id="g" gradientTransform="matrix(.0753497 0 0 .217412 -5.854013 33.641348)" gradientUnits="userSpaceOnUse" x1="306.916656" x2="305.954559" y1="-25.791676" y2="-141.414581"><stop offset="0" stop-color="#f44336"/><stop offset="1" stop-color="#ef5350"/></linearGradient><linearGradient id="h"><stop offset="0" stop-color="#424242"/><stop offset="1" stop-color="#616161"/></linearGradient><linearGradient id="i" gradientTransform="matrix(4.556143 0 0 13.146184 -353.972656 2034.180176)" gradientUnits="userSpaceOnUse" x1="165.484848" x2="165.484848" xlink:href="#h" y1="-25.791672" y2="-141.414581"/><linearGradient id="j" gradientUnits="userSpaceOnUse" x1="275.166321" x2="275.166321" xlink:href="#h" y1="233.49969318561" y2="-168.66647475188"/><linearGradient id="k" gradientUnits="userSpaceOnUse" x1="6.61521900006" x2="6.61521900006" xlink:href="#h" y1="10.5036216875" y2="9.18057812501"/><linearGradient id="l" gradientUnits="userSpaceOnUse" x1="6.61521900006" x2="6.61521900006" xlink:href="#h" y1="21.4187276875" y2="20.09568412501"/><path d="m7.9375 28.035156h15.878906v1.320313h-15.878906zm0 0" fill="url(#a)"/><path d="m23.816406 28.035156h2.644532v-1.324218h-2.644532zm0 0" fill="url(#c)"/><path d="m7.9375 28.035156h-2.644531v1.320313h2.644531zm0 0" fill="url(#d)"/><path d="m7.9375 28.035156h-2.644531v-1.324218h2.644531zm0 0" fill="url(#e)"/><path d="m23.816406 28.035156h2.644532v1.320313h-2.644532zm0 0" fill="url(#f)"/><path d="m6.613281 2.894531h18.523438c.730469 0 1.324219.59375 1.324219 1.324219v22.492188c0 .730468-.59375 1.324218-1.324219 1.324218h-18.523438c-.730469 0-1.320312-.59375-1.320312-1.324218v-22.492188c0-.730469.589843-1.324219 1.320312-1.324219zm0 0" fill="url(#g)"/><path d="m399.883094 175.022665c-44.169013 0-79.8349 35.665888-79.8349 80.071098v1360.027676c0 44.405211 35.665887 80.071098 79.8349 80.071098h120.224746v-1520.169872zm0 0" fill="url(#i)" stroke="#212121" stroke-linecap="round" stroke-width="11.338583" transform="scale(.016538)"/><path d="m6.613281 28.035156c-.730469 0-1.320312-.589844-1.320312-1.324218v-.164063c0 .730469.589843 1.320313 1.320312 1.320313h18.523438c.734375 0 1.324219-.589844 1.324219-1.320313v.164063c0 .734374-.589844 1.324218-1.324219 1.324218zm0 0" fill-opacity=".196078"/><path d="m6.613281 2.894531c-.730469 0-1.320312.589844-1.320312 1.324219v.164062c0-.730468.589843-1.324218 1.320312-1.320312h18.523438c.734375-.003906 1.324219.589844 1.324219 1.320312v-.164062c0-.734375-.589844-1.324219-1.324219-1.324219zm0 0" fill="#e6e6e6" fill-opacity=".937239"/><path d="m6.617188 2.800781c-.785157 0-1.417969.636719-1.417969 1.417969v22.492188c0 .785156.632812 1.417968 1.417969 1.417968h18.519531c.785156 0 1.417969-.632812 1.417969-1.417968v-22.492188c0-.78125-.632813-1.417969-1.417969-1.417969zm0 .1875h18.519531c.683593 0 1.230469.546875 1.230469 1.230469v22.492188c0 .683593-.546876 1.230468-1.230469 1.230468h-18.519531c-.683594 0-1.230469-.546875-1.230469-1.230468v-22.492188c0-.683594.546875-1.230469 1.230469-1.230469zm0 0" fill="#212121"/><path d="m12.570312 10.835938v9.921874h7.273438c.734375 0 1.324219-.589843 1.324219-1.324218v-7.277344c0-.730469-.589844-1.320312-1.324219-1.320312zm1.652344 1.652343h4.628906c.367188 0 .664063.292969.664063.660157v5.21875c0 .367187-.296875.664062-.664063.664062h-4.628906zm0 0" fill="#eee" fill-opacity=".995816"/><path d="m12.570312 10.835938v.246093h7.273438c.734375 0 1.324219.589844 1.324219 1.324219v-.25c0-.730469-.589844-1.320312-1.324219-1.320312zm6.945313 7.53125c0 .367187-.296875.664062-.664063.664062h-4.628906v.246094h4.628906c.367188 0 .664063-.292969.664063-.660156zm0 0" fill="#fff" fill-opacity=".916129"/><path d="m14.222656 12.480469v.523437h4.628906c.367188 0 .664063.296875.664063.664063v-.527344c0-.367187-.296875-.660156-.664063-.660156zm6.945313 6.945312c0 .730469-.589844 1.320313-1.324219 1.320313h-7.273438v.527344h7.273438c.734375 0 1.324219-.589844 1.324219-1.324219zm0 0" fill-opacity=".235294"/><path d="m760.084936 655.213055v599.94274h439.800544c44.40521 0 80.071098-35.665887 80.071098-80.071098v-440.036742c0-44.169012-35.665888-79.8349-80.071098-79.8349zm99.911724 99.911724h279.894546c22.202605 0 40.153648 17.714845 40.153648 39.91745v315.560434c0 22.202605-17.951043 40.153647-40.153648 40.153647h-279.894546zm0 0" fill="none" stroke="#212121" stroke-linecap="square" stroke-linejoin="bevel" stroke-width="11.338583" transform="scale(.016538)"/><path d="m148.17335-147.506445v359.840637h243.414255c5.874439 0 10.561492-4.749547 10.561492-10.561492v-338.717654c0-5.811945-4.687053-10.561491-10.561492-10.561491zm0 0" style="fill:none;stroke-width:8;stroke-linecap:round;stroke-linejoin:round;stroke-dasharray:16 16;stroke-dashoffset:7.200001;stroke:url(#j)" transform="matrix(.062506 0 0 .062506 0 13.438783)"/><path d="m5.292969 9.179688h3.308593v1.324218h-3.308593zm0 0" fill="url(#k)"/><path d="m5.292969 10.503906v.496094h3.308593v-.496094zm0 0" fill-opacity=".235294"/><path d="m5.292969 9.179688v.332031h3.308593v-.332031zm0 0" fill="#fff" fill-opacity=".392157"/><path d="m84.679414-20.514265h52.932445v21.185477h-52.932445zm0 0" fill="none" stroke="#212121" stroke-linecap="round" stroke-linejoin="round" stroke-width="3" transform="matrix(.062506 0 0 .062506 0 10.461951)"/><path d="m5.292969 20.09375h3.308593v1.324219h-3.308593zm0 0" fill="url(#l)"/><path d="m5.292969 21.417969v.496093h3.308593v-.496093zm0 0" fill-opacity=".235294"/><path d="m5.292969 20.09375v.332031h3.308593v-.332031zm0 0" fill="#fff" fill-opacity=".392157"/><path d="m84.679414-20.530958h52.932445v21.185477h-52.932445zm0 0" fill="none" stroke="#212121" stroke-linecap="round" stroke-linejoin="round" stroke-width="3" transform="matrix(.062506 0 0 .062506 0 21.377057)"/></svg>

<?xml version="1.0" encoding="UTF-8"?>
<svg xmlns="http://www.w3.org/2000/svg" xmlns:xlink="http://www.w3.org/1999/xlink" width="32px" height="32px" viewBox="0 0 32 32" version="1.1">
<defs>
<linearGradient id="linear0" gradientUnits="userSpaceOnUse" x1="254" y1="233.5" x2="254" y2="254.666672" gradientTransform="matrix(0.062506,0,0,0.062506,-0.00000381506,13.438785)">
<stop offset="0" style="stop-color:rgb(0%,0%,0%);stop-opacity:0.27451;"/>
<stop offset="1" style="stop-color:rgb(0%,0%,0%);stop-opacity:0;"/>
</linearGradient>
<radialGradient id="radial0" gradientUnits="userSpaceOnUse" cx="450.908936" cy="189.579361" fx="450.908936" fy="189.579361" r="21.166656" gradientTransform="matrix(0.00000017417,-0.0781325,-0.140638,-0.000000101539,50.146086,63.595333)">
<stop offset="0" style="stop-color:rgb(0%,0%,0%);stop-opacity:0.313726;"/>
<stop offset="0.222222" style="stop-color:rgb(0%,0%,0%);stop-opacity:0.27451;"/>
<stop offset="1" style="stop-color:rgb(0%,0%,0%);stop-opacity:0;"/>
</radialGradient>
<radialGradient id="radial1" gradientUnits="userSpaceOnUse" cx="450.908936" cy="189.579361" fx="450.908936" fy="189.579361" r="21.166656" gradientTransform="matrix(-0.00000017417,0.0781325,0.140638,0.000000101539,-18.393049,-7.52748)">
<stop offset="0" style="stop-color:rgb(0%,0%,0%);stop-opacity:0.313726;"/>
<stop offset="0.222222" style="stop-color:rgb(0%,0%,0%);stop-opacity:0.27451;"/>
<stop offset="1" style="stop-color:rgb(0%,0%,0%);stop-opacity:0;"/>
</radialGradient>
<radialGradient id="radial2" gradientUnits="userSpaceOnUse" cx="450.908936" cy="189.579361" fx="450.908936" fy="189.579361" r="21.166656" gradientTransform="matrix(-0.00000017417,-0.0781325,0.140638,-0.000000101539,-18.393049,63.595333)">
<stop offset="0" style="stop-color:rgb(0%,0%,0%);stop-opacity:0.313726;"/>
<stop offset="0.222222" style="stop-color:rgb(0%,0%,0%);stop-opacity:0.27451;"/>
<stop offset="1" style="stop-color:rgb(0%,0%,0%);stop-opacity:0;"/>
</radialGradient>
<radialGradient id="radial3" gradientUnits="userSpaceOnUse" cx="450.908936" cy="189.579361" fx="450.908936" fy="189.579361" r="21.166656" gradientTransform="matrix(0.00000017417,0.0781325,-0.140638,0.000000101539,50.146084,-7.527479)">
<stop offset="0" style="stop-color:rgb(0%,0%,0%);stop-opacity:0.313726;"/>
<stop offset="0.222222" style="stop-color:rgb(0%,0%,0%);stop-opacity:0.27451;"/>
<stop offset="1" style="stop-color:rgb(0%,0%,0%);stop-opacity:0;"/>
</radialGradient>
<linearGradient id="linear1" gradientUnits="userSpaceOnUse" x1="306.916656" y1="-25.791676" x2="305.954559" y2="-141.414581" gradientTransform="matrix(0.0753497,0,0,0.217412,-5.854013,33.641348)">
<stop offset="0" style="stop-color:rgb(95.686275%,26.274511%,21.176471%);stop-opacity:1;"/>
<stop offset="1" style="stop-color:rgb(93.725491%,32.549021%,31.37255%);stop-opacity:1;"/>
</linearGradient>
<linearGradient id="linear2" gradientUnits="userSpaceOnUse" x1="165.484848" y1="-25.791672" x2="165.484848" y2="-141.414581" gradientTransform="matrix(4.556143,0,0,13.146184,-353.972656,2034.180176)">
<stop offset="0" style="stop-color:rgb(25.882354%,25.882354%,25.882354%);stop-opacity:1;"/>
<stop offset="1" style="stop-color:rgb(38.039216%,38.039216%,38.039216%);stop-opacity:1;"/>
</linearGradient>
<linearGradient id="linear3" gradientUnits="userSpaceOnUse" x1="1040" y1="1695.118164" x2="1040" y2="175.118134" gradientTransform="matrix(0.264583,0,0,0.264583,0.000000666667,-214.999756)">
<stop offset="0" style="stop-color:rgb(25.882354%,25.882354%,25.882354%);stop-opacity:1;"/>
<stop offset="1" style="stop-color:rgb(38.039216%,38.039216%,38.039216%);stop-opacity:1;"/>
</linearGradient>
<linearGradient id="linear4" gradientUnits="userSpaceOnUse" x1="105.833344" y1="0.666667" x2="105.833344" y2="-20.499998" gradientTransform="matrix(0.062506,0,0,0.062506,-0.0000000208353,10.461951)">
<stop offset="0" style="stop-color:rgb(25.882354%,25.882354%,25.882354%);stop-opacity:1;"/>
<stop offset="1" style="stop-color:rgb(38.039216%,38.039216%,38.039216%);stop-opacity:1;"/>
</linearGradient>
<linearGradient id="linear5" gradientUnits="userSpaceOnUse" x1="105.833344" y1="0.666667" x2="105.833344" y2="-20.499998" gradientTransform="matrix(0.062506,0,0,0.062506,-0.0000000208353,21.377057)">
<stop offset="0" style="stop-color:rgb(25.882354%,25.882354%,25.882354%);stop-opacity:1;"/>
<stop offset="1" style="stop-color:rgb(38.039216%,38.039216%,38.039216%);stop-opacity:1;"/>
</linearGradient>
</defs>
<g id="surface1">
<path style=" stroke:none;fill-rule:nonzero;fill:url(#linear0);" d="M 7.9375 28.035156 L 23.816406 28.035156 L 23.816406 29.355469 L 7.9375 29.355469 Z M 7.9375 28.035156 "/>
<path style=" stroke:none;fill-rule:nonzero;fill:url(#radial0);" d="M 23.816406 28.035156 L 26.460938 28.035156 L 26.460938 26.710938 L 23.816406 26.710938 Z M 23.816406 28.035156 "/>
<path style=" stroke:none;fill-rule:nonzero;fill:url(#radial1);" d="M 7.9375 28.035156 L 5.292969 28.035156 L 5.292969 29.355469 L 7.9375 29.355469 Z M 7.9375 28.035156 "/>
<path style=" stroke:none;fill-rule:nonzero;fill:url(#radial2);" d="M 7.9375 28.035156 L 5.292969 28.035156 L 5.292969 26.710938 L 7.9375 26.710938 Z M 7.9375 28.035156 "/>
<path style=" stroke:none;fill-rule:nonzero;fill:url(#radial3);" d="M 23.816406 28.035156 L 26.460938 28.035156 L 26.460938 29.355469 L 23.816406 29.355469 Z M 23.816406 28.035156 "/>
<path style=" stroke:none;fill-rule:nonzero;fill:url(#linear1);" d="M 6.613281 2.894531 L 25.136719 2.894531 C 25.867188 2.894531 26.460938 3.488281 26.460938 4.21875 L 26.460938 26.710938 C 26.460938 27.441406 25.867188 28.035156 25.136719 28.035156 L 6.613281 28.035156 C 5.882812 28.035156 5.292969 27.441406 5.292969 26.710938 L 5.292969 4.21875 C 5.292969 3.488281 5.882812 2.894531 6.613281 2.894531 Z M 6.613281 2.894531 "/>
<path style="fill-rule:nonzero;fill:url(#linear2);stroke-width:11.338583;stroke-linecap:round;stroke-linejoin:miter;stroke:rgb(12.941177%,12.941177%,12.941177%);stroke-opacity:1;stroke-miterlimit:4;" d="M 399.883094 175.022665 C 355.714081 175.022665 320.048194 210.688553 320.048194 255.093763 L 320.048194 1615.121439 C 320.048194 1659.52665 355.714081 1695.192537 399.883094 1695.192537 L 520.10784 1695.192537 L 520.10784 175.022665 Z M 399.883094 175.022665 " transform="matrix(0.016538,0,0,0.016538,0,0)"/>
<path style=" stroke:none;fill-rule:nonzero;fill:rgb(0%,0%,0%);fill-opacity:0.196078;" d="M 6.613281 28.035156 C 5.882812 28.035156 5.292969 27.445312 5.292969 26.710938 L 5.292969 26.546875 C 5.292969 27.277344 5.882812 27.867188 6.613281 27.867188 L 25.136719 27.867188 C 25.871094 27.867188 26.460938 27.277344 26.460938 26.546875 L 26.460938 26.710938 C 26.460938 27.445312 25.871094 28.035156 25.136719 28.035156 Z M 6.613281 28.035156 "/>
<path style=" stroke:none;fill-rule:nonzero;fill:rgb(90.196079%,90.196079%,90.196079%);fill-opacity:0.937239;" d="M 6.613281 2.894531 C 5.882812 2.894531 5.292969 3.484375 5.292969 4.21875 L 5.292969 4.382812 C 5.292969 3.652344 5.882812 3.058594 6.613281 3.0625 L 25.136719 3.0625 C 25.871094 3.058594 26.460938 3.652344 26.460938 4.382812 L 26.460938 4.21875 C 26.460938 3.484375 25.871094 2.894531 25.136719 2.894531 Z M 6.613281 2.894531 "/>
<path style=" stroke:none;fill-rule:nonzero;fill:rgb(12.941177%,12.941177%,12.941177%);fill-opacity:1;" d="M 6.617188 2.800781 C 5.832031 2.800781 5.199219 3.4375 5.199219 4.21875 L 5.199219 26.710938 C 5.199219 27.496094 5.832031 28.128906 6.617188 28.128906 L 25.136719 28.128906 C 25.921875 28.128906 26.554688 27.496094 26.554688 26.710938 L 26.554688 4.21875 C 26.554688 3.4375 25.921875 2.800781 25.136719 2.800781 Z M 6.617188 2.988281 L 25.136719 2.988281 C 25.820312 2.988281 26.367188 3.535156 26.367188 4.21875 L 26.367188 26.710938 C 26.367188 27.394531 25.820312 27.941406 25.136719 27.941406 L 6.617188 27.941406 C 5.933594 27.941406 5.386719 27.394531 5.386719 26.710938 L 5.386719 4.21875 C 5.386719 3.535156 5.933594 2.988281 6.617188 2.988281 Z M 6.617188 2.988281 "/>
<path style=" stroke:none;fill-rule:nonzero;fill:rgb(93.333334%,93.333334%,93.333334%);fill-opacity:0.995816;" d="M 12.570312 10.835938 L 12.570312 20.757812 L 19.84375 20.757812 C 20.578125 20.757812 21.167969 20.167969 21.167969 19.433594 L 21.167969 12.15625 C 21.167969 11.425781 20.578125 10.835938 19.84375 10.835938 Z M 14.222656 12.488281 L 18.851562 12.488281 C 19.21875 12.488281 19.515625 12.78125 19.515625 13.148438 L 19.515625 18.367188 C 19.515625 18.734375 19.21875 19.03125 18.851562 19.03125 L 14.222656 19.03125 Z M 14.222656 12.488281 "/>
<path style=" stroke:none;fill-rule:nonzero;fill:rgb(100%,100%,100%);fill-opacity:0.916129;" d="M 12.570312 10.835938 L 12.570312 11.082031 L 19.84375 11.082031 C 20.578125 11.082031 21.167969 11.671875 21.167969 12.40625 L 21.167969 12.15625 C 21.167969 11.425781 20.578125 10.835938 19.84375 10.835938 Z M 19.515625 18.367188 C 19.515625 18.734375 19.21875 19.03125 18.851562 19.03125 L 14.222656 19.03125 L 14.222656 19.277344 L 18.851562 19.277344 C 19.21875 19.277344 19.515625 18.984375 19.515625 18.617188 Z M 19.515625 18.367188 "/>
<path style=" stroke:none;fill-rule:nonzero;fill:rgb(0%,0%,0%);fill-opacity:0.235294;" d="M 14.222656 12.480469 L 14.222656 13.003906 L 18.851562 13.003906 C 19.21875 13.003906 19.515625 13.300781 19.515625 13.667969 L 19.515625 13.140625 C 19.515625 12.773438 19.21875 12.480469 18.851562 12.480469 Z M 21.167969 19.425781 C 21.167969 20.15625 20.578125 20.746094 19.84375 20.746094 L 12.570312 20.746094 L 12.570312 21.273438 L 19.84375 21.273438 C 20.578125 21.273438 21.167969 20.683594 21.167969 19.949219 Z M 21.167969 19.425781 "/>
<path style="fill:none;stroke-width:11.338583;stroke-linecap:square;stroke-linejoin:bevel;stroke:rgb(12.941177%,12.941177%,12.941177%);stroke-opacity:1;stroke-miterlimit:4;" d="M 760.084936 655.213055 L 760.084936 1255.155795 L 1199.88548 1255.155795 C 1244.29069 1255.155795 1279.956578 1219.489908 1279.956578 1175.084697 L 1279.956578 735.047955 C 1279.956578 690.878943 1244.29069 655.213055 1199.88548 655.213055 Z M 859.99666 755.124779 L 1139.891206 755.124779 C 1162.093811 755.124779 1180.044854 772.839624 1180.044854 795.042229 L 1180.044854 1110.602663 C 1180.044854 1132.805268 1162.093811 1150.75631 1139.891206 1150.75631 L 859.99666 1150.75631 Z M 859.99666 755.124779 " transform="matrix(0.016538,0,0,0.016538,0,0)"/>
<path style="fill:none;stroke-width:8;stroke-linecap:round;stroke-linejoin:round;stroke:url(#linear3);stroke-dasharray:16,16;stroke-dashoffset:7.200001;stroke-miterlimit:4;" d="M 148.17335 -147.506445 L 148.17335 212.334192 L 391.587605 212.334192 C 397.462044 212.334192 402.149097 207.584645 402.149097 201.7727 L 402.149097 -136.944954 C 402.149097 -142.756899 397.462044 -147.506445 391.587605 -147.506445 Z M 148.17335 -147.506445 " transform="matrix(0.062506,0,0,0.062506,0,13.438783)"/>
<path style=" stroke:none;fill-rule:nonzero;fill:url(#linear4);" d="M 5.292969 9.179688 L 8.601562 9.179688 L 8.601562 10.503906 L 5.292969 10.503906 Z M 5.292969 9.179688 "/>
<path style=" stroke:none;fill-rule:nonzero;fill:rgb(0%,0%,0%);fill-opacity:0.235294;" d="M 5.292969 10.503906 L 5.292969 11 L 8.601562 11 L 8.601562 10.503906 Z M 5.292969 10.503906 "/>
<path style=" stroke:none;fill-rule:nonzero;fill:rgb(100%,100%,100%);fill-opacity:0.392157;" d="M 5.292969 9.179688 L 5.292969 9.511719 L 8.601562 9.511719 L 8.601562 9.179688 Z M 5.292969 9.179688 "/>
<path style="fill:none;stroke-width:3;stroke-linecap:round;stroke-linejoin:round;stroke:rgb(12.941177%,12.941177%,12.941177%);stroke-opacity:1;stroke-miterlimit:4;" d="M 84.679414 -20.514265 L 137.611859 -20.514265 L 137.611859 0.671212 L 84.679414 0.671212 Z M 84.679414 -20.514265 " transform="matrix(0.062506,0,0,0.062506,-0.0000000208353,10.461951)"/>
<path style=" stroke:none;fill-rule:nonzero;fill:url(#linear5);" d="M 5.292969 20.09375 L 8.601562 20.09375 L 8.601562 21.417969 L 5.292969 21.417969 Z M 5.292969 20.09375 "/>
<path style=" stroke:none;fill-rule:nonzero;fill:rgb(0%,0%,0%);fill-opacity:0.235294;" d="M 5.292969 21.417969 L 5.292969 21.914062 L 8.601562 21.914062 L 8.601562 21.417969 Z M 5.292969 21.417969 "/>
<path style=" stroke:none;fill-rule:nonzero;fill:rgb(100%,100%,100%);fill-opacity:0.392157;" d="M 5.292969 20.09375 L 5.292969 20.425781 L 8.601562 20.425781 L 8.601562 20.09375 Z M 5.292969 20.09375 "/>
<path style="fill:none;stroke-width:3;stroke-linecap:round;stroke-linejoin:round;stroke:rgb(12.941177%,12.941177%,12.941177%);stroke-opacity:1;stroke-miterlimit:4;" d="M 84.679414 -20.530958 L 137.611859 -20.530958 L 137.611859 0.654519 L 84.679414 0.654519 Z M 84.679414 -20.530958 " transform="matrix(0.062506,0,0,0.062506,-0.0000000208353,21.377057)"/>
</g>
</svg>
